picto/gents-toilets-framed.svg

<svg class="color-immutable" width="30" height="30" viewBox="0 0 30 30" fill="none" xmlns="http://www.w3.org/2000/svg"><path d="M29.9999 0H0V29.9999H29.9999V0Z" fill="#2D327D"/><path d="M25.4999 2.99999C26.3249 2.99999 26.9999 3.67499 26.9999 4.49999V25.4999C26.9999 26.3249 26.3249 26.9999 25.4999 26.9999H4.49999C3.67499 26.9999 2.99999 26.3249 2.99999 25.4999V4.49999C2.99999 3.67499 3.67499 2.99999 4.49999 2.99999H25.4999ZM25.4999 2.62499H4.49999C3.46612 2.62499 2.62499 3.46612 2.62499 4.49999V25.4999C2.62499 26.5338 3.46612 27.3749 4.49999 27.3749H25.4999C26.5338 27.3749 27.3749 26.5338 27.3749 25.4999V4.49999C27.3749 3.46612 26.5338 2.62499 25.4999 2.62499Z" fill="white"/><path d="M10.7868 7.4883C10.7868 6.6603 10.1147 5.9883 9.28665 5.9883C8.4588 5.9883 7.78673 6.6603 7.78673 7.4883C7.78673 8.31629 8.4588 8.98829 9.28665 8.98829C10.1148 8.98829 10.7868 8.31629 10.7868 7.4883Z" fill="white"/><path d="M5.99987 10.8748V15.9654C5.99987 16.2604 6.23912 16.4997 6.53416 16.4997C6.82921 16.4997 7.06846 16.2603 7.06846 15.9654V11.6247H7.53714V23.2309C7.53714 23.6552 7.88161 23.9996 8.30611 23.9996C8.73039 23.9996 9.07478 23.6552 9.07478 23.2309V16.4809H9.56206V23.2309C9.56206 23.6552 9.90646 23.9996 10.331 23.9996C10.7553 23.9996 11.0997 23.6552 11.0997 23.2309V11.6247H11.5684V15.9654C11.5684 16.2604 11.8076 16.4997 12.103 16.4997C12.3978 16.4997 12.6371 16.2603 12.6371 15.9654V10.8748C12.6371 10.0468 11.9653 9.37477 11.1371 9.37477H7.49964C6.67164 9.37477 5.99987 10.0468 5.99987 10.8748Z" fill="white"/></svg>

<svg class="color-immutable" width="30" height="30" viewBox="0 0 30 30" fill="none" xmlns="http://www.w3.org/2000/svg"><path d="M30 0H0v30h30V0Z" fill="#2D327D"/><path d="M25.5 3c.825 0 1.5.675 1.5 1.5v21c0 .825-.675 1.5-1.5 1.5h-21c-.825 0-1.5-.675-1.5-1.5v-21C3 3.675 3.675 3 4.5 3h21Zm0-.375h-21A1.877 1.877 0 0 0 2.625 4.5v21c0 1.034.841 1.875 1.875 1.875h21a1.877 1.877 0 0 0 1.875-1.875v-21A1.877 1.877 0 0 0 25.5 2.625Z" fill="#fff"/><path d="M10.787 7.488a1.5 1.5 0 1 0-3.001.002 1.5 1.5 0 0 0 3-.002ZM6 10.875v5.09a.534.534 0 0 0 1.068 0v-4.34h.47V23.23a.77.77 0 0 0 1.537 0v-6.75h.487v6.75a.77.77 0 0 0 1.538 0V11.625h.468v4.34a.534.534 0 0 0 1.07 0v-5.09a1.5 1.5 0 0 0-1.5-1.5H7.5a1.5 1.5 0 0 0-1.5 1.5Z" fill="#fff"/></svg>
